packages/kaspersky-hexa-ui-icons/src/iconsSVGs/32/StatusInvisibleSolid.svg

<svg xmlns="http://www.w3.org/2000/svg" width="32" height="32" fill="none" viewBox="0 0 32 32"><path fill="#000" fill-rule="evenodd" d="M30 16c0 7.732-6.268 14-14 14S2 23.732 2 16 8.268 2 16 2s14 6.268 14 14M8 13c0-4.4183 3.5817-8 8-8s8 3.5817 8 8v11c0 .5523-.4477 1-1 1h-9c-3.3137 0-6-2.6863-6-6zm2 0c0-3.3137 2.6863-6 6-6s6 2.6863 6 6v10h-8c-2.2091 0-4-1.7909-4-4zm3.5 2c.8284 0 1.5-.6716 1.5-1.5s-.6716-1.5-1.5-1.5-1.5.6716-1.5 1.5.6716 1.5 1.5 1.5m6.5-1.5c0 .8284-.6716 1.5-1.5 1.5s-1.5-.6716-1.5-1.5.6716-1.5 1.5-1.5 1.5.6716 1.5 1.5"/></svg>

<svg width="32" height="32" viewBox="0 0 32 32" fill="none" xmlns="http://www.w3.org/2000/svg">
<path fill-rule="evenodd" clip-rule="evenodd" d="M10 13C10 9.68629 12.6863 7 16 7C19.3137 7 22 9.68629 22 13V23H14C11.7909 23 10 21.2091 10 19V13ZM13.5 15C14.3284 15 15 14.3284 15 13.5C15 12.6716 14.3284 12 13.5 12C12.6716 12 12 12.6716 12 13.5C12 14.3284 12.6716 15 13.5 15ZM20 13.5C20 14.3284 19.3284 15 18.5 15C17.6716 15 17 14.3284 17 13.5C17 12.6716 17.6716 12 18.5 12C19.3284 12 20 12.6716 20 13.5Z" fill="black"/>
<path fill-rule="evenodd" clip-rule="evenodd" d="M16 30C23.732 30 30 23.732 30 16C30 8.26801 23.732 2 16 2C8.26801 2 2 8.26801 2 16C2 23.732 8.26801 30 16 30ZM16 5C11.5817 5 8 8.58172 8 13V19C8 22.3137 10.6863 25 14 25H23C23.5523 25 24 24.5523 24 24V13C24 8.58172 20.4183 5 16 5Z" fill="black"/>
</svg>
